X:1
T:I have a Song to Sing-O
M:4/4
L:1/4
K:Eb
 G F/2G/2 E F| G2 B2-| B3 z| e2 B c| G2 B2-| B4-| B2 z2| z4| z4| z2 z E/2E/2|\
 E E/2E/2 G G/2G/2| BB/2-c/2 B B| E E/2E/2 G G| B2 B G/2G/2| G A/2A/2 B/2A/2 G|\
 F G A F| E F G E/2E/2| F G A F| G F G A/2A/2| B c B A/2A/2| G A/2G/2 F G/2F/2|\
 E2 E z| e2 d z| c2 B z| A/2G/2 F F2| G/2A/2 B B3/2 G/2| G F G A/2A/2|\
 B c B A/2A/2| G A/2G/2 F G/2F/2| E2 E z|
